assets/icons/AisMagicHandFilled.svg

<svg fill="none" height="32" viewBox="0 0 32 32" width="32" xmlns="http://www.w3.org/2000/svg"><g fill="#000"><path d="m28.707 24.293-18.99999-18.99999c-.391-.391-1.023-.391-1.414 0l-3 3c-.391.391-.391 1.02294 0 1.41394l18.99999 18.99995c.195.195.451.2931.707.2931s.512-.0981.707-.2931l3-3c.391-.391.391-1.0229 0-1.4139zm-19.70699-16.87902 3.29299 3.29292-1.586 1.5861-3.29299-3.29302z"/><path d="m4 5c.55228 0 1-.44772 1-1s-.44772-1-1-1-1 .44772-1 1 .44772 1 1 1z"/><path d="m15 5c.5523 0 1-.44772 1-1s-.4477-1-1-1-1 .44772-1 1 .4477 1 1 1z"/><path d="m4 16c.55228 0 1-.4477 1-1s-.44772-1-1-1-1 .4477-1 1 .44772 1 1 1z"/></g></svg>

<svg width="32" height="32" viewBox="0 0 32 32" fill="none" xmlns="http://www.w3.org/2000/svg">
<g id="AisMagicHand">
<g id="Vector">
<path d="M28.707 24.293L9.70701 5.29301C9.31601 4.90201 8.68401 4.90201 8.29301 5.29301L5.29301 8.29301C4.90201 8.68401 4.90201 9.31595 5.29301 9.70695L24.293 28.7069C24.488 28.9019 24.744 29 25 29C25.256 29 25.512 28.9019 25.707 28.7069L28.707 25.7069C29.098 25.3159 29.098 24.684 28.707 24.293ZM9.00001 7.41398L12.293 10.7069L10.707 12.293L7.41401 8.99998L9.00001 7.41398Z" fill="black"/>
<path d="M4 5C4.55228 5 5 4.55228 5 4C5 3.44772 4.55228 3 4 3C3.44772 3 3 3.44772 3 4C3 4.55228 3.44772 5 4 5Z" fill="black"/>
<path d="M15 5C15.5523 5 16 4.55228 16 4C16 3.44772 15.5523 3 15 3C14.4477 3 14 3.44772 14 4C14 4.55228 14.4477 5 15 5Z" fill="black"/>
<path d="M4 16C4.55228 16 5 15.5523 5 15C5 14.4477 4.55228 14 4 14C3.44772 14 3 14.4477 3 15C3 15.5523 3.44772 16 4 16Z" fill="black"/>
</g>
</g>
</svg>
